Newaita-dark/apps/48/system-file-manager.svg

<svg height="48pt" viewBox="0 0 48 48" width="48pt" xmlns="http://www.w3.org/2000/svg" xmlns:xlink="http://www.w3.org/1999/xlink"><linearGradient id="a" gradientUnits="userSpaceOnUse" x1="23.81478" x2="23.81478" y1="42.0509045" y2="44.03547050005"><stop offset="0" stop-opacity=".27451"/><stop offset="1" stop-opacity="0"/></linearGradient><linearGradient id="b"><stop offset="0" stop-opacity=".313725"/><stop offset=".222222" stop-opacity=".27451"/><stop offset="1" stop-opacity="0"/></linearGradient><radialGradient id="c" cx="450.908936" cy="189.579361" gradientTransform="matrix(.00000026 -.117199 -.210958 -.00000015 77.203691 95.392999)" gradientUnits="userSpaceOnUse" r="21.166656" xlink:href="#b"/><radialGradient id="d" cx="450.908936" cy="189.579361" gradientTransform="matrix(-.00000026 .117199 .210958 .00000015 -29.574145 -11.291218)" gradientUnits="userSpaceOnUse" r="21.166656" xlink:href="#b"/><radialGradient id="e" cx="450.908936" cy="189.579361" gradientTransform="matrix(-.00000026 -.117199 .210958 -.00000015 -29.574145 95.392999)" gradientUnits="userSpaceOnUse" r="21.166656" xlink:href="#b"/><radialGradient id="f" cx="450.908936" cy="189.579361" gradientTransform="matrix(.00000026 .117199 -.210958 .00000015 77.203688 -11.291219)" gradientUnits="userSpaceOnUse" r="21.166656" xlink:href="#b"/><linearGradient id="g" gradientUnits="userSpaceOnUse" x1="22.82250375005" x2="22.82250375005" y1="4.3441580001" y2="42.0509015"><stop offset="0" stop-color="#e0e0e0"/><stop offset="1" stop-color="#bdbdbd"/></linearGradient><linearGradient id="h"><stop offset="0" stop-color="#7986cb"/><stop offset="1" stop-color="#5c6bc0"/></linearGradient><linearGradient id="i" gradientUnits="userSpaceOnUse" x1="16.86880725005" x2="16.86880725005" xlink:href="#h" y1="7.32100474995" y2="26.17437724998"/><linearGradient id="j" gradientUnits="userSpaceOnUse" x1="15.87652349995" x2="15.87652349995" xlink:href="#h" y1="22.20523668718" y2="39.07404393723"/><linearGradient id="k"><stop offset="0" stop-color="#bdbdbd"/><stop offset="1" stop-color="#e0e0e0"/></linearGradient><linearGradient id="l" gradientUnits="userSpaceOnUse" x1="23.814786" x2="23.814786" xlink:href="#k" y1="25.18209265622" y2="22.20524412494"/><linearGradient id="m" gradientUnits="userSpaceOnUse" x1="23.814786" x2="23.814786" xlink:href="#k" y1="10.29785865622" y2="7.32101012494"/><path d="m9.921875 42.050781h27.785156v1.984375h-27.785156zm0 0" fill="url(#a)"/><path d="m37.707031 42.050781h3.96875v-1.984375h-3.96875zm0 0" fill="url(#c)"/><path d="m9.921875 42.050781h-3.96875v1.984375h3.96875zm0 0" fill="url(#d)"/><path d="m9.921875 42.050781h-3.96875v-1.984375h3.96875zm0 0" fill="url(#e)"/><path d="m37.707031 42.050781h3.96875v1.984375h-3.96875zm0 0" fill="url(#f)"/><path d="m7.9375 4.34375h31.753906c1.097656 0 1.984375.890625 1.984375 1.984375v33.738281c0 1.097656-.886719 1.984375-1.984375 1.984375h-31.753906c-1.09375 0-1.984375-.886719-1.984375-1.984375v-33.738281c0-1.09375.890625-1.984375 1.984375-1.984375zm0 0" fill="url(#g)"/><path d="m7.9375 4.34375c-1.097656 0-1.984375.886719-1.984375 1.984375v.25c0-1.101563.886719-1.984375 1.984375-1.984375h31.753906c1.097656 0 1.984375.882812 1.984375 1.984375v-.25c0-1.097656-.886719-1.984375-1.984375-1.984375zm0 0" fill="#e6e6e6" fill-opacity=".588235"/><path d="m9.921875 7.320312h27.785156c.546875 0 .992188.445313.992188.992188v10.914062c0 .550782-.445313.992188-.992188.992188h-27.785156c-.546875 0-.992187-.441406-.992187-.992188v-10.914062c0-.546875.445312-.992188.992187-.992188zm0 0" fill="url(#i)"/><path d="m9.921875 22.207031h27.785156c.546875 0 .992188.441407.992188.992188v14.882812c0 .546875-.445313.992188-.992188.992188h-27.785156c-.546875 0-.992187-.445313-.992187-.992188v-14.882812c0-.550781.445312-.992188.992187-.992188zm0 0" fill="url(#j)"/><path d="m9.921875 7.320312c-.546875 0-.992187.441407-.992187.992188v.496094c0-.550782.445312-.992188.992187-.992188h27.785156c.550781 0 .992188.441406.992188.992188v-.496094c0-.550781-.441407-.992188-.992188-.992188zm0 0" fill="#fff" fill-opacity=".392157"/><path d="m9.921875 20.839844c-.546875 0-.992187-.441406-.992187-.992188v-.496094c0 .550782.445312.992188.992187.992188h27.785156c.550781 0 .992188-.441406.992188-.992188v.496094c0 .550782-.441407.992188-.992188.992188zm0 0" fill-opacity=".235294"/><path d="m105.823228-136.924123h296.3467c5.832776 0 10.582323 4.749547 10.582323 10.582323v116.405551c0 5.874439-4.749547 10.582322-10.582323 10.582322h-296.3467c-5.832777 0-10.582323-4.707883-10.582323-10.582322v-116.405551c0-5.832776 4.749546-10.582323 10.582323-10.582323zm0 0" fill="none" stroke="#212121" stroke-linecap="round" stroke-width="3" transform="matrix(.093759 0 0 .093759 0 20.158175)"/><path d="m9.921875 22.207031c-.546875 0-.992187.441407-.992187.992188v.496093c0-.550781.445312-.992187.992187-.992187h27.785156c.550781 0 .992188.441406.992188.992187v-.496093c0-.550781-.441407-.992188-.992188-.992188zm0 0" fill="#fff" fill-opacity=".392157"/><path d="m9.921875 39.695312c-.546875 0-.992187-.445312-.992187-.992187v-.496094c0 .546875.445312.992188.992187.992188h27.785156c.550781 0 .992188-.445313.992188-.992188v.496094c0 .546875-.441407.992187-.992188.992187zm0 0" fill-opacity=".235294"/><path d="m105.823228 21.852382h296.3467c5.832776 0 10.582323 4.707883 10.582323 10.582322v158.734842c0 5.832776-4.749547 10.582323-10.582323 10.582323h-296.3467c-5.832777 0-10.582323-4.749547-10.582323-10.582323v-158.734842c0-5.874439 4.749546-10.582322 10.582323-10.582322zm0 0" fill="none" stroke="#212121" stroke-linecap="round" stroke-width="3" transform="matrix(.093759 0 0 .093759 0 20.158175)"/><path d="m7.9375 4.34375c-1.097656 0-1.984375.886719-1.984375 1.984375v.746094c0-1.101563.886719-1.984375 1.984375-1.984375h31.753906c1.097656 0 1.984375.882812 1.984375 1.984375v-.746094c0-1.097656-.886719-1.984375-1.984375-1.984375zm0 0" fill="#fff" fill-opacity=".705882"/><path d="m7.9375 42.050781c-1.097656 0-1.984375-.886719-1.984375-1.984375v-.746094c0 1.101563.886719 1.988282 1.984375 1.988282h31.753906c1.097656 0 1.984375-.886719 1.984375-1.988282v.746094c0 1.097656-.886719 1.984375-1.984375 1.984375zm0 0" fill-opacity=".235294"/><path d="m7.9375 4.203125c-1.175781 0-2.125.949219-2.125 2.125v33.738281c0 1.175782.949219 2.125 2.125 2.125h31.753906c1.175782 0 2.125-.949218 2.125-2.125v-33.738281c0-1.175781-.949218-2.125-2.125-2.125zm0 .28125h31.753906c1.023438 0 1.84375.820313 1.84375 1.84375v33.738281c0 1.023438-.820312 1.84375-1.84375 1.84375h-31.753906c-1.023438 0-1.84375-.820312-1.84375-1.84375v-33.738281c0-1.023437.820312-1.84375 1.84375-1.84375zm0 0" fill="#212121"/><path d="m20.339844 22.207031v1.984375c0 .546875.445312.992188.996094.992188h4.960937c.546875 0 .992187-.445313.992187-.992188v-1.984375zm0 0" fill="url(#l)"/><path d="m20.339844 24.191406v.496094c0 .546875.445312.992188.996094.992188h4.960937c.546875 0 .992187-.445313.992187-.992188v-.496094c0 .546875-.445312.992188-.992187.992188h-4.960937c-.550782 0-.996094-.445313-.996094-.992188zm0 0" fill-opacity=".235294"/><path d="m20.339844 22.207031v.496094h6.949218v-.496094zm0 0" fill="#fff" fill-opacity=".784314"/><path d="m20.203125 22.066406v2.125c0 .625.503906 1.132813 1.132813 1.132813h4.960937c.625 0 1.132813-.507813 1.132813-1.132813v-2.125zm.28125.28125h6.664063v1.84375c0 .472656-.378907.851563-.851563.851563h-4.960937c-.476563 0-.851563-.378907-.851563-.851563zm0 0" fill="#212121"/><path d="m20.339844 7.320312v1.984376c0 .550781.445312.992187.996094.992187h4.960937c.546875 0 .992187-.441406.992187-.992187v-1.984376zm0 0" fill="url(#m)"/><path d="m20.339844 9.304688v.496093c0 .550781.445312.992188.996094.992188h4.960937c.546875 0 .992187-.441407.992187-.992188v-.496093c0 .550781-.445312.992187-.992187.992187h-4.960937c-.550782 0-.996094-.441406-.996094-.992187zm0 0" fill-opacity=".235294"/><path d="m20.339844 7.320312v.496094h6.949218v-.496094zm0 0" fill="#fff" fill-opacity=".784314"/><path d="m20.203125 7.179688v2.125c0 .625.503906 1.132812 1.132813 1.132812h4.960937c.625 0 1.132813-.507812 1.132813-1.132812v-2.125zm.28125.28125h6.664063v1.84375c0 .476562-.378907.851562-.851563.851562h-4.960937c-.476563 0-.851563-.375-.851563-.851562zm0 0" fill="#212121"/></svg>

<?xml version="1.0" encoding="UTF-8"?>
<svg xmlns="http://www.w3.org/2000/svg" xmlns:xlink="http://www.w3.org/1999/xlink" width="48pt" height="48pt" viewBox="0 0 48 48" version="1.1">
<defs>
<linearGradient id="linear0" gradientUnits="userSpaceOnUse" x1="254" y1="233.5" x2="254" y2="254.666672" gradientTransform="matrix(0.093759,0,0,0.093759,-0.00000572259,20.158178)">
<stop offset="0" style="stop-color:rgb(0%,0%,0%);stop-opacity:0.27451;"/>
<stop offset="1" style="stop-color:rgb(0%,0%,0%);stop-opacity:0;"/>
</linearGradient>
<radialGradient id="radial0" gradientUnits="userSpaceOnUse" cx="450.908936" cy="189.579361" fx="450.908936" fy="189.579361" r="21.166656" gradientTransform="matrix(0.000000261256,-0.117199,-0.210958,-0.000000152308,77.203691,95.392999)">
<stop offset="0" style="stop-color:rgb(0%,0%,0%);stop-opacity:0.313725;"/>
<stop offset="0.222222" style="stop-color:rgb(0%,0%,0%);stop-opacity:0.27451;"/>
<stop offset="1" style="stop-color:rgb(0%,0%,0%);stop-opacity:0;"/>
</radialGradient>
<radialGradient id="radial1" gradientUnits="userSpaceOnUse" cx="450.908936" cy="189.579361" fx="450.908936" fy="189.579361" r="21.166656" gradientTransform="matrix(-0.000000261256,0.117199,0.210958,0.000000152308,-29.574145,-11.291218)">
<stop offset="0" style="stop-color:rgb(0%,0%,0%);stop-opacity:0.313725;"/>
<stop offset="0.222222" style="stop-color:rgb(0%,0%,0%);stop-opacity:0.27451;"/>
<stop offset="1" style="stop-color:rgb(0%,0%,0%);stop-opacity:0;"/>
</radialGradient>
<radialGradient id="radial2" gradientUnits="userSpaceOnUse" cx="450.908936" cy="189.579361" fx="450.908936" fy="189.579361" r="21.166656" gradientTransform="matrix(-0.000000261256,-0.117199,0.210958,-0.000000152308,-29.574145,95.392999)">
<stop offset="0" style="stop-color:rgb(0%,0%,0%);stop-opacity:0.313725;"/>
<stop offset="0.222222" style="stop-color:rgb(0%,0%,0%);stop-opacity:0.27451;"/>
<stop offset="1" style="stop-color:rgb(0%,0%,0%);stop-opacity:0;"/>
</radialGradient>
<radialGradient id="radial3" gradientUnits="userSpaceOnUse" cx="450.908936" cy="189.579361" fx="450.908936" fy="189.579361" r="21.166656" gradientTransform="matrix(0.000000261256,0.117199,-0.210958,0.000000152308,77.203688,-11.291219)">
<stop offset="0" style="stop-color:rgb(0%,0%,0%);stop-opacity:0.313725;"/>
<stop offset="0.222222" style="stop-color:rgb(0%,0%,0%);stop-opacity:0.27451;"/>
<stop offset="1" style="stop-color:rgb(0%,0%,0%);stop-opacity:0;"/>
</radialGradient>
<linearGradient id="linear1" gradientUnits="userSpaceOnUse" x1="243.416672" y1="-168.666656" x2="243.416672" y2="233.5" gradientTransform="matrix(0.093759,0,0,0.093759,0,20.158175)">
<stop offset="0" style="stop-color:rgb(87.843137%,87.843137%,87.843137%);stop-opacity:1;"/>
<stop offset="1" style="stop-color:rgb(74.117647%,74.117647%,74.117647%);stop-opacity:1;"/>
</linearGradient>
<linearGradient id="linear2" gradientUnits="userSpaceOnUse" x1="179.916672" y1="-136.916672" x2="179.916672" y2="64.166664" gradientTransform="matrix(0.093759,0,0,0.093759,0,20.158175)">
<stop offset="0" style="stop-color:rgb(47.45098%,52.54902%,79.607843%);stop-opacity:1;"/>
<stop offset="1" style="stop-color:rgb(36.078431%,41.960784%,75.294118%);stop-opacity:1;"/>
</linearGradient>
<linearGradient id="linear3" gradientUnits="userSpaceOnUse" x1="169.333328" y1="-168.666702" x2="169.333328" y2="11.24997" gradientTransform="matrix(0.093759,0,0,0.093759,0,38.019258)">
<stop offset="0" style="stop-color:rgb(47.45098%,52.54902%,79.607843%);stop-opacity:1;"/>
<stop offset="1" style="stop-color:rgb(36.078431%,41.960784%,75.294118%);stop-opacity:1;"/>
</linearGradient>
<linearGradient id="linear4" gradientUnits="userSpaceOnUse" x1="254" y1="0.666663" x2="254" y2="-31.08334" gradientTransform="matrix(0.093759,0,0,0.093759,0,25.119587)">
<stop offset="0" style="stop-color:rgb(74.117647%,74.117647%,74.117647%);stop-opacity:1;"/>
<stop offset="1" style="stop-color:rgb(87.843137%,87.843137%,87.843137%);stop-opacity:1;"/>
</linearGradient>
<linearGradient id="linear5" gradientUnits="userSpaceOnUse" x1="254" y1="0.666663" x2="254" y2="-31.08334" gradientTransform="matrix(0.093759,0,0,0.093759,0,10.235353)">
<stop offset="0" style="stop-color:rgb(74.117647%,74.117647%,74.117647%);stop-opacity:1;"/>
<stop offset="1" style="stop-color:rgb(87.843137%,87.843137%,87.843137%);stop-opacity:1;"/>
</linearGradient>
</defs>
<g id="surface1">
<path style=" stroke:none;fill-rule:nonzero;fill:url(#linear0);" d="M 9.921875 42.050781 L 37.707031 42.050781 L 37.707031 44.035156 L 9.921875 44.035156 Z M 9.921875 42.050781 "/>
<path style=" stroke:none;fill-rule:nonzero;fill:url(#radial0);" d="M 37.707031 42.050781 L 41.675781 42.050781 L 41.675781 40.066406 L 37.707031 40.066406 Z M 37.707031 42.050781 "/>
<path style=" stroke:none;fill-rule:nonzero;fill:url(#radial1);" d="M 9.921875 42.050781 L 5.953125 42.050781 L 5.953125 44.035156 L 9.921875 44.035156 Z M 9.921875 42.050781 "/>
<path style=" stroke:none;fill-rule:nonzero;fill:url(#radial2);" d="M 9.921875 42.050781 L 5.953125 42.050781 L 5.953125 40.066406 L 9.921875 40.066406 Z M 9.921875 42.050781 "/>
<path style=" stroke:none;fill-rule:nonzero;fill:url(#radial3);" d="M 37.707031 42.050781 L 41.675781 42.050781 L 41.675781 44.035156 L 37.707031 44.035156 Z M 37.707031 42.050781 "/>
<path style=" stroke:none;fill-rule:nonzero;fill:url(#linear1);" d="M 7.9375 4.34375 L 39.691406 4.34375 C 40.789062 4.34375 41.675781 5.234375 41.675781 6.328125 L 41.675781 40.066406 C 41.675781 41.164062 40.789062 42.050781 39.691406 42.050781 L 7.9375 42.050781 C 6.84375 42.050781 5.953125 41.164062 5.953125 40.066406 L 5.953125 6.328125 C 5.953125 5.234375 6.84375 4.34375 7.9375 4.34375 Z M 7.9375 4.34375 "/>
<path style=" stroke:none;fill-rule:nonzero;fill:rgb(90.196079%,90.196079%,90.196079%);fill-opacity:0.588235;" d="M 7.9375 4.34375 C 6.839844 4.34375 5.953125 5.230469 5.953125 6.328125 L 5.953125 6.578125 C 5.953125 5.476562 6.839844 4.59375 7.9375 4.59375 L 39.691406 4.59375 C 40.789062 4.59375 41.675781 5.476562 41.675781 6.578125 L 41.675781 6.328125 C 41.675781 5.230469 40.789062 4.34375 39.691406 4.34375 Z M 7.9375 4.34375 "/>
<path style=" stroke:none;fill-rule:nonzero;fill:url(#linear2);" d="M 9.921875 7.320312 L 37.707031 7.320312 C 38.253906 7.320312 38.699219 7.765625 38.699219 8.3125 L 38.699219 19.226562 C 38.699219 19.777344 38.253906 20.21875 37.707031 20.21875 L 9.921875 20.21875 C 9.375 20.21875 8.929688 19.777344 8.929688 19.226562 L 8.929688 8.3125 C 8.929688 7.765625 9.375 7.320312 9.921875 7.320312 Z M 9.921875 7.320312 "/>
<path style=" stroke:none;fill-rule:nonzero;fill:url(#linear3);" d="M 9.921875 22.207031 L 37.707031 22.207031 C 38.253906 22.207031 38.699219 22.648438 38.699219 23.199219 L 38.699219 38.082031 C 38.699219 38.628906 38.253906 39.074219 37.707031 39.074219 L 9.921875 39.074219 C 9.375 39.074219 8.929688 38.628906 8.929688 38.082031 L 8.929688 23.199219 C 8.929688 22.648438 9.375 22.207031 9.921875 22.207031 Z M 9.921875 22.207031 "/>
<path style=" stroke:none;fill-rule:nonzero;fill:rgb(100%,100%,100%);fill-opacity:0.392157;" d="M 9.921875 7.320312 C 9.375 7.320312 8.929688 7.761719 8.929688 8.3125 L 8.929688 8.808594 C 8.929688 8.257812 9.375 7.816406 9.921875 7.816406 L 37.707031 7.816406 C 38.257812 7.816406 38.699219 8.257812 38.699219 8.808594 L 38.699219 8.3125 C 38.699219 7.761719 38.257812 7.320312 37.707031 7.320312 Z M 9.921875 7.320312 "/>
<path style=" stroke:none;fill-rule:nonzero;fill:rgb(0%,0%,0%);fill-opacity:0.235294;" d="M 9.921875 20.839844 C 9.375 20.839844 8.929688 20.398438 8.929688 19.847656 L 8.929688 19.351562 C 8.929688 19.902344 9.375 20.34375 9.921875 20.34375 L 37.707031 20.34375 C 38.257812 20.34375 38.699219 19.902344 38.699219 19.351562 L 38.699219 19.847656 C 38.699219 20.398438 38.257812 20.839844 37.707031 20.839844 Z M 9.921875 20.839844 "/>
<path style="fill:none;stroke-width:3;stroke-linecap:round;stroke-linejoin:miter;stroke:rgb(12.941177%,12.941177%,12.941177%);stroke-opacity:1;stroke-miterlimit:4;" d="M 105.823228 -136.924123 L 402.169928 -136.924123 C 408.002704 -136.924123 412.752251 -132.174576 412.752251 -126.3418 L 412.752251 -9.936249 C 412.752251 -4.06181 408.002704 0.646073 402.169928 0.646073 L 105.823228 0.646073 C 99.990451 0.646073 95.240905 -4.06181 95.240905 -9.936249 L 95.240905 -126.3418 C 95.240905 -132.174576 99.990451 -136.924123 105.823228 -136.924123 Z M 105.823228 -136.924123 " transform="matrix(0.093759,0,0,0.093759,0,20.158175)"/>
<path style=" stroke:none;fill-rule:nonzero;fill:rgb(100%,100%,100%);fill-opacity:0.392157;" d="M 9.921875 22.207031 C 9.375 22.207031 8.929688 22.648438 8.929688 23.199219 L 8.929688 23.695312 C 8.929688 23.144531 9.375 22.703125 9.921875 22.703125 L 37.707031 22.703125 C 38.257812 22.703125 38.699219 23.144531 38.699219 23.695312 L 38.699219 23.199219 C 38.699219 22.648438 38.257812 22.207031 37.707031 22.207031 Z M 9.921875 22.207031 "/>
<path style=" stroke:none;fill-rule:nonzero;fill:rgb(0%,0%,0%);fill-opacity:0.235294;" d="M 9.921875 39.695312 C 9.375 39.695312 8.929688 39.25 8.929688 38.703125 L 8.929688 38.207031 C 8.929688 38.753906 9.375 39.199219 9.921875 39.199219 L 37.707031 39.199219 C 38.257812 39.199219 38.699219 38.753906 38.699219 38.207031 L 38.699219 38.703125 C 38.699219 39.25 38.257812 39.695312 37.707031 39.695312 Z M 9.921875 39.695312 "/>
<path style="fill:none;stroke-width:3;stroke-linecap:round;stroke-linejoin:miter;stroke:rgb(12.941177%,12.941177%,12.941177%);stroke-opacity:1;stroke-miterlimit:4;" d="M 105.823228 21.852382 L 402.169928 21.852382 C 408.002704 21.852382 412.752251 26.560265 412.752251 32.434704 L 412.752251 191.169546 C 412.752251 197.002322 408.002704 201.751869 402.169928 201.751869 L 105.823228 201.751869 C 99.990451 201.751869 95.240905 197.002322 95.240905 191.169546 L 95.240905 32.434704 C 95.240905 26.560265 99.990451 21.852382 105.823228 21.852382 Z M 105.823228 21.852382 " transform="matrix(0.093759,0,0,0.093759,0,20.158175)"/>
<path style=" stroke:none;fill-rule:nonzero;fill:rgb(100%,100%,100%);fill-opacity:0.705882;" d="M 7.9375 4.34375 C 6.839844 4.34375 5.953125 5.230469 5.953125 6.328125 L 5.953125 7.074219 C 5.953125 5.972656 6.839844 5.089844 7.9375 5.089844 L 39.691406 5.089844 C 40.789062 5.089844 41.675781 5.972656 41.675781 7.074219 L 41.675781 6.328125 C 41.675781 5.230469 40.789062 4.34375 39.691406 4.34375 Z M 7.9375 4.34375 "/>
<path style=" stroke:none;fill-rule:nonzero;fill:rgb(0%,0%,0%);fill-opacity:0.235294;" d="M 7.9375 42.050781 C 6.839844 42.050781 5.953125 41.164062 5.953125 40.066406 L 5.953125 39.320312 C 5.953125 40.421875 6.839844 41.308594 7.9375 41.308594 L 39.691406 41.308594 C 40.789062 41.308594 41.675781 40.421875 41.675781 39.320312 L 41.675781 40.066406 C 41.675781 41.164062 40.789062 42.050781 39.691406 42.050781 Z M 7.9375 42.050781 "/>
<path style=" stroke:none;fill-rule:nonzero;fill:rgb(12.941177%,12.941177%,12.941177%);fill-opacity:1;" d="M 7.9375 4.203125 C 6.761719 4.203125 5.8125 5.152344 5.8125 6.328125 L 5.8125 40.066406 C 5.8125 41.242188 6.761719 42.191406 7.9375 42.191406 L 39.691406 42.191406 C 40.867188 42.191406 41.816406 41.242188 41.816406 40.066406 L 41.816406 6.328125 C 41.816406 5.152344 40.867188 4.203125 39.691406 4.203125 Z M 7.9375 4.484375 L 39.691406 4.484375 C 40.714844 4.484375 41.535156 5.304688 41.535156 6.328125 L 41.535156 40.066406 C 41.535156 41.089844 40.714844 41.910156 39.691406 41.910156 L 7.9375 41.910156 C 6.914062 41.910156 6.09375 41.089844 6.09375 40.066406 L 6.09375 6.328125 C 6.09375 5.304688 6.914062 4.484375 7.9375 4.484375 Z M 7.9375 4.484375 "/>
<path style=" stroke:none;fill-rule:nonzero;fill:url(#linear4);" d="M 20.339844 22.207031 L 20.339844 24.191406 C 20.339844 24.738281 20.785156 25.183594 21.335938 25.183594 L 26.296875 25.183594 C 26.84375 25.183594 27.289062 24.738281 27.289062 24.191406 L 27.289062 22.207031 Z M 20.339844 22.207031 "/>
<path style=" stroke:none;fill-rule:nonzero;fill:rgb(0%,0%,0%);fill-opacity:0.235294;" d="M 20.339844 24.191406 L 20.339844 24.6875 C 20.339844 25.234375 20.785156 25.679688 21.335938 25.679688 L 26.296875 25.679688 C 26.84375 25.679688 27.289062 25.234375 27.289062 24.6875 L 27.289062 24.191406 C 27.289062 24.738281 26.84375 25.183594 26.296875 25.183594 L 21.335938 25.183594 C 20.785156 25.183594 20.339844 24.738281 20.339844 24.191406 Z M 20.339844 24.191406 "/>
<path style=" stroke:none;fill-rule:nonzero;fill:rgb(100%,100%,100%);fill-opacity:0.784314;" d="M 20.339844 22.207031 L 20.339844 22.703125 L 27.289062 22.703125 L 27.289062 22.207031 Z M 20.339844 22.207031 "/>
<path style=" stroke:none;fill-rule:nonzero;fill:rgb(12.941177%,12.941177%,12.941177%);fill-opacity:1;" d="M 20.203125 22.066406 L 20.203125 24.191406 C 20.203125 24.816406 20.707031 25.324219 21.335938 25.324219 L 26.296875 25.324219 C 26.921875 25.324219 27.429688 24.816406 27.429688 24.191406 L 27.429688 22.066406 Z M 20.484375 22.347656 L 27.148438 22.347656 L 27.148438 24.191406 C 27.148438 24.664062 26.769531 25.042969 26.296875 25.042969 L 21.335938 25.042969 C 20.859375 25.042969 20.484375 24.664062 20.484375 24.191406 Z M 20.484375 22.347656 "/>
<path style=" stroke:none;fill-rule:nonzero;fill:url(#linear5);" d="M 20.339844 7.320312 L 20.339844 9.304688 C 20.339844 9.855469 20.785156 10.296875 21.335938 10.296875 L 26.296875 10.296875 C 26.84375 10.296875 27.289062 9.855469 27.289062 9.304688 L 27.289062 7.320312 Z M 20.339844 7.320312 "/>
<path style=" stroke:none;fill-rule:nonzero;fill:rgb(0%,0%,0%);fill-opacity:0.235294;" d="M 20.339844 9.304688 L 20.339844 9.800781 C 20.339844 10.351562 20.785156 10.792969 21.335938 10.792969 L 26.296875 10.792969 C 26.84375 10.792969 27.289062 10.351562 27.289062 9.800781 L 27.289062 9.304688 C 27.289062 9.855469 26.84375 10.296875 26.296875 10.296875 L 21.335938 10.296875 C 20.785156 10.296875 20.339844 9.855469 20.339844 9.304688 Z M 20.339844 9.304688 "/>
<path style=" stroke:none;fill-rule:nonzero;fill:rgb(100%,100%,100%);fill-opacity:0.784314;" d="M 20.339844 7.320312 L 20.339844 7.816406 L 27.289062 7.816406 L 27.289062 7.320312 Z M 20.339844 7.320312 "/>
<path style=" stroke:none;fill-rule:nonzero;fill:rgb(12.941177%,12.941177%,12.941177%);fill-opacity:1;" d="M 20.203125 7.179688 L 20.203125 9.304688 C 20.203125 9.929688 20.707031 10.4375 21.335938 10.4375 L 26.296875 10.4375 C 26.921875 10.4375 27.429688 9.929688 27.429688 9.304688 L 27.429688 7.179688 Z M 20.484375 7.460938 L 27.148438 7.460938 L 27.148438 9.304688 C 27.148438 9.78125 26.769531 10.15625 26.296875 10.15625 L 21.335938 10.15625 C 20.859375 10.15625 20.484375 9.78125 20.484375 9.304688 Z M 20.484375 7.460938 "/>
</g>
</svg>
